svg/SJJB-OpenStreetMapIcons/sport/swimming_indoor.svg

<?xml version="1.0" encoding="UTF-8" standalone="no"?>
<!-- Created with Inkscape (http://www.inkscape.org/) -->

<svg
   xmlns:i="http://ns.adobe.com/AdobeIllustrator/10.0/"
   xmlns:dc="http://purl.org/dc/elements/1.1/"
   xmlns:cc="http://creativecommons.org/ns#"
   xmlns:rdf="http://www.w3.org/1999/02/22-rdf-syntax-ns#"
   xmlns:svg="http://www.w3.org/2000/svg"
   xmlns="http://www.w3.org/2000/svg"
   xmlns:sodipodi="http://sodipodi.sourceforge.net/DTD/sodipodi-0.dtd"
   xmlns:inkscape="http://www.inkscape.org/namespaces/inkscape"
   version="1.0"
   width="580"
   height="580"
   id="svg2"
   sodipodi:version="0.32"
   inkscape:version="0.48.0 r9654"
   sodipodi:docname="sport_swimming_indoor.svg"
   inkscape:output_extension="org.inkscape.output.svg.inkscape">
  <metadata
     id="metadata1976">
    <rdf:RDF>
      <cc:Work
         rdf:about="">
        <dc:format>image/svg+xml</dc:format>
        <dc:type
           rdf:resource="http://purl.org/dc/dcmitype/StillImage" />
        <cc:license
           rdf:resource="http://web.resource.org/cc/PublicDomain" />
        <dc:language>en</dc:language>
      </cc:Work>
    </rdf:RDF>
  </metadata>
  <sodipodi:namedview
     inkscape:window-height="1002"
     inkscape:window-width="1280"
     inkscape:pageshadow="2"
     inkscape:pageopacity="0.0"
     guidetolerance="10.0"
     gridtolerance="10.0"
     objecttolerance="10.0"
     borderopacity="1.0"
     bordercolor="#666666"
     pagecolor="#ffffff"
     id="base"
     inkscape:zoom="0.65172414"
     inkscape:cx="66.746032"
     inkscape:cy="290"
     inkscape:window-x="0"
     inkscape:window-y="24"
     inkscape:current-layer="svg2"
     showgrid="false"
     inkscape:window-maximized="0" />
  <defs
     id="defs4">
    <inkscape:perspective
       sodipodi:type="inkscape:persp3d"
       inkscape:vp_x="0 : 290 : 1"
       inkscape:vp_y="0 : 1000 : 0"
       inkscape:vp_z="580 : 290 : 1"
       inkscape:persp3d-origin="290 : 193.33333 : 1"
       id="perspective3653" />
  </defs>
  <g
     id="g1327">
    <path
       d="M 66.275,1.768 C 24.94,1.768 1.704,23.139 1.704,66.804 L 1.704,516.927 C 1.704,557.771 22.6,579.156 63.896,579.156 L 515.92,579.156 C 557.227,579.156 578.149,558.842 578.149,516.927 L 578.149,66.804 C 578.149,24.203 557.227,1.768 514.628,1.768 C 514.624,1.768 66.133,1.625 66.275,1.768 z "
       style="fill:#111;stroke:#eee;stroke-width:3.40799999"
       id="path1329" />
  </g>
  <path
     d="M 544.69568,158.34368 C 544.69568,160.95048 542.79605,162.11452 540.47343,160.93081 L 301.36702,82.722431 C 299.0444,81.538715 295.21453,81.4786 292.85694,82.591272 L 40.764617,157.78297 C 38.40702,158.89565 36.477879,157.67149 36.477879,155.06469 L 36.477879,133.94141 C 36.477879,131.33461 38.40702,128.2917 40.764617,127.17903 L 292.85694,51.987329 C 295.21453,50.874657 299.0444,50.934772 301.36702,52.118489 L 540.47343,130.32687 C 542.79605,131.51058 544.69568,134.6136 544.69568,137.2204 L 544.69568,158.34368 L 544.69568,158.34368 z"
     style="fill:none;fill-opacity:1;stroke:#ffffff;stroke-width:32.78993988"
     id="path2253"
     sodipodi:nodetypes="cccccccccccccc" />
  <path
     clip-rule="evenodd"
     d="M 520.67002,418.45757 C 516.5973,419.70107 511.33749,419.46262 504.43807,417.98711 C 497.42585,416.39109 491.03409,408.95069 479.38379,409.36219 C 467.45018,409.77627 450.59521,420.46638 434.30939,420.46638 C 417.79285,420.11513 399.24314,408.88917 382.38944,408.88917 C 365.59215,409.00838 350.32165,420.64201 334.2038,420.99711 C 317.80261,421.0548 301.45785,410.13135 285.3964,409.89548 C 269.10803,409.4827 253.66832,419.58312 238.45423,419.46262 C 223.46703,419.16906 210.17586,408.41739 195.30147,408.88917 C 180.03097,409.4827 163.29009,421.29323 148.35931,422.00216 C 133.31571,422.23931 119.68482,411.01847 106.39492,410.89795 C 92.9922,410.66208 77.947335,419.10752 68.898104,420.99839 C 59.848858,422.71363 54.136528,422.89054 51.987986,421.5304 L 51.987986,452.83415 C 54.136528,454.19172 59.848858,454.0161 68.898104,452.30214 C 77.947335,450.41129 92.990929,441.96583 106.39492,442.20172 C 119.6861,442.32093 133.31571,453.54178 148.35931,453.30335 C 163.29009,452.71492 180.03097,440.60571 195.30147,440.19163 C 210.17586,439.60193 223.46575,450.5869 238.45423,450.82279 C 253.66832,450.94329 269.10803,440.90312 285.3964,441.19797 C 301.45785,441.43256 317.80261,452.35726 334.2038,452.30086 C 350.32165,451.94576 365.59215,440.30957 382.38944,440.19163 C 399.24314,440.13522 417.79285,451.53298 434.30939,451.8304 C 450.59521,451.8304 467.45147,441.13643 479.38379,440.72493 C 491.03409,440.19163 497.42585,447.75253 504.43807,449.2883 C 511.33749,450.76509 516.5973,451.00096 520.67002,449.76005 L 520.67002,418.45757 z"
     i:knockout="Off"
     id="path113"
     style="fill:#ffffff;fill-opacity:1;fill-rule:evenodd" />
  <path
     clip-rule="evenodd"
     d="M 252.64917,401.80515 L 382.04844,332.76229 C 371.87111,310.43599 364.6871,293.60535 360.50156,281.61535 C 356.20192,269.6843 354.39311,267.02684 356.82496,261.35681 C 359.3132,255.50986 355.8635,254.62405 374.8106,246.88752 C 393.75516,238.85486 450.42471,215.82093 468.91801,214.69923 C 487.01648,213.75443 486.28192,233.71684 483.28473,240.45089 C 480.00296,247.00547 463.14926,248.65917 450.36829,253.85744 C 437.41554,258.81855 423.1642,264.36937 406.70661,270.51244 L 465.91955,400.80137 C 458.28559,407.35596 448.1608,409.89804 434.47478,408.89173 C 420.56185,407.53671 402.01085,394.30708 384.70593,394.24426 C 367.45609,394.30708 347.77443,409.07119 331.99629,409.36475 C 316.16045,409.3045 303.60511,396.54919 290.37033,395.25187 C 277.08171,393.94812 264.58277,396.13255 252.64917,401.80515 z"
     i:knockout="Off"
     id="path115"
     style="fill:#ffffff;fill-opacity:1;fill-rule:evenodd" />
  <path
     clip-rule="evenodd"
     d="M 485.13331,289.06343 C 505.08288,289.06343 521.27127,305.96969 521.27127,326.80254 C 521.27127,347.63539 505.08162,364.54164 485.13331,364.54164 C 465.185,364.54164 448.99406,347.63539 448.99406,326.80254 C 448.99406,305.96969 465.18371,289.06343 485.13331,289.06343"
     i:knockout="Off"
     id="path117"
     style="fill:#ffffff;fill-opacity:1;fill-rule:evenodd" />
  <path
     clip-rule="evenodd"
     d="M 165.32709,404.34338 C 150.00019,401.50773 134.39126,397.14144 117.42475,391.23041 C 100.34415,384.97325 71.218417,376.58422 64.317713,368.37466 C 57.418297,359.92922 62.451206,343.03834 76.365405,342.27045 C 90.333465,341.50258 118.0465,353.90537 146.83379,364.1827 C 175.45059,374.34337 208.19654,387.04101 246.82531,402.92813 C 242.07444,405.52663 235.79674,406.35348 227.76539,405.17152 C 219.62119,403.81138 209.3285,396.31074 198.86527,396.07614 C 188.34565,395.89795 177.3171,398.73361 165.32709,404.34338 z"
     i:knockout="Off"
     id="path119"
     style="fill:#ffffff;fill-opacity:1;fill-rule:evenodd" />
  <path
     clip-rule="evenodd"
     d="M 520.67002,470.848 C 516.5973,471.96842 511.33749,471.7928 504.43807,470.316 C 497.42585,468.78151 491.03409,461.21806 479.38379,461.75007 C 467.45018,462.16285 450.59521,472.85296 434.30939,472.85296 C 417.79285,472.50042 399.24314,461.27831 382.38944,461.27831 C 365.59215,461.39753 350.32165,473.03245 334.2038,473.38497 C 317.80261,473.44522 301.45785,462.51923 285.3964,462.28207 C 269.10803,461.86799 253.66832,471.96842 238.45423,471.85049 C 223.46703,471.55564 210.17586,460.80527 195.30147,461.27831 C 180.03097,461.86799 163.29009,473.67982 148.35931,474.39131 C 133.31571,474.6259 119.68482,463.40377 106.39492,463.28583 C 92.9922,463.05123 77.947335,471.49539 68.898104,473.38626 C 59.848858,475.21943 54.136528,475.15791 51.987986,473.8593 L 51.987986,505.16176 C 54.136528,506.46036 59.848858,506.5219 68.898104,504.68873 C 77.947335,502.79658 92.990929,494.35371 106.39492,494.58831 C 119.6861,494.70624 133.31571,505.92836 148.35931,505.69376 C 163.29009,504.98229 180.03097,493.17047 195.30147,492.58078 C 210.17586,492.10775 223.46575,502.85811 238.45423,503.15296 C 253.66832,503.2709 269.10803,493.17047 285.3964,493.58453 C 301.45785,493.8217 317.80261,504.7477 334.2038,504.68745 C 350.32165,504.3349 365.59215,492.69616 382.38944,492.58078 C 399.24314,492.58078 417.79285,503.8029 434.30939,504.15544 C 450.59521,504.15544 467.45147,493.46532 479.38379,493.05252 C 491.03409,492.63846 497.42585,500.07885 504.43807,501.67615 C 511.33749,503.15296 516.5973,503.39011 520.67002,502.15049 L 520.67002,470.848 z"
     i:knockout="Off"
     id="path121"
     style="fill:#ffffff;fill-opacity:1;fill-rule:evenodd" />
</svg>

<svg xmlns="http://www.w3.org/2000/svg" viewBox="0 0 580 580"><path d="m66.28 1.768c-41.34 0-64.57 21.371-64.57 65.04v450.12c0 40.844 20.896 62.23 62.19 62.23h452.02c41.31 0 62.23-20.314 62.23-62.23v-450.12c0-42.601-20.922-65.04-63.52-65.04-.004 0-448.5-.143-448.35 0z" fill="#111" stroke="#eee" stroke-width="3.408"/><path d="m544.7 158.34c0 2.607-1.9 3.771-4.222 2.587l-239.11-78.21c-2.323-1.184-6.152-1.244-8.51-.131l-252.09 75.19c-2.358 1.113-4.287-.111-4.287-2.718v-21.12c0-2.607 1.929-5.65 4.287-6.762l252.09-75.19c2.358-1.113 6.187-1.053 8.51.131l239.11 78.21c2.323 1.184 4.222 4.287 4.222 6.894v21.12z" fill="none" stroke="#fff" stroke-width="32.79"/><g fill="#fff" fill-rule="evenodd"><path d="m520.67 418.46c-4.073 1.244-9.333 1.01-16.232-.47-7.01-1.596-13.404-9.04-25.05-8.625-11.934.414-28.789 11.1-45.07 11.1-16.517-.351-35.07-11.577-51.92-11.577-16.797.119-32.07 11.753-48.19 12.11-16.401.058-32.746-10.866-48.807-11.1-16.288-.413-31.728 9.688-46.942 9.567-14.987-.294-28.28-11.05-43.15-10.573-15.27.594-32.01 12.404-46.942 13.11-15.04.237-28.674-10.984-41.964-11.1-13.403-.236-28.448 8.21-37.497 10.1-9.05 1.715-14.762 1.892-16.91.532v31.3c2.149 1.358 7.861 1.182 16.91-.532 9.05-1.891 24.09-10.336 37.497-10.1 13.291.119 26.921 11.34 41.964 11.1 14.931-.588 31.672-12.698 46.942-13.11 14.874-.59 28.16 10.395 43.15 10.631 15.214.12 30.654-9.92 46.942-9.625 16.06.235 32.406 11.159 48.807 11.1 16.12-.355 31.388-11.991 48.19-12.11 16.854-.056 35.403 11.341 51.92 11.639 16.286 0 33.14-10.694 45.07-11.11 11.65-.533 18.04 7.03 25.05 8.563 6.899 1.477 12.159 1.713 16.232.472v-31.3"/><path d="m252.65 401.81l129.4-69.04c-10.177-22.326-17.361-39.16-21.547-51.15-4.3-11.931-6.108-14.589-3.677-20.259 2.488-5.847-.961-6.733 17.986-14.469 18.945-8.03 75.61-31.07 94.11-32.19 18.1-.945 17.364 19.02 14.367 25.752-3.282 6.555-20.14 8.208-32.916 13.407-12.953 4.961-27.2 10.512-43.662 16.655l59.21 130.29c-7.634 6.555-17.759 9.1-31.445 8.09-13.913-1.355-32.464-14.585-49.769-14.647-17.25.063-36.932 14.827-52.71 15.12-15.836-.06-28.391-12.816-41.626-14.11-13.289-1.304-25.788.881-37.721 6.553"/><path d="m485.13 289.06c19.95 0 36.14 16.906 36.14 37.739 0 20.833-16.19 37.739-36.14 37.739-19.948 0-36.14-16.906-36.14-37.739 0-20.833 16.19-37.739 36.14-37.739"/><path d="m165.33 404.34c-15.327-2.836-30.936-7.202-47.902-13.11-17.08-6.257-46.21-14.646-53.11-22.856-6.899-8.445-1.867-25.336 12.05-26.1 13.968-.768 41.681 11.635 70.47 21.912 28.617 10.161 61.36 22.858 99.99 38.745-4.751 2.599-11.03 3.425-19.06 2.243-8.144-1.36-18.437-8.861-28.9-9.1-10.52-.178-21.548 2.657-33.538 8.267"/><path d="m520.67 470.85c-4.073 1.12-9.333.945-16.232-.532-7.01-1.534-13.404-9.1-25.05-8.566-11.934.413-28.789 11.1-45.07 11.1-16.517-.353-35.07-11.575-51.92-11.575-16.797.119-32.07 11.754-48.19 12.11-16.401.06-32.746-10.866-48.807-11.1-16.288-.414-31.728 9.686-46.942 9.568-14.987-.295-28.28-11.05-43.15-10.572-15.27.59-32.01 12.402-46.942 13.11-15.04.235-28.674-10.988-41.964-11.11-13.403-.235-28.448 8.21-37.497 10.1-9.05 1.833-14.762 1.772-16.91.473v31.3c2.149 1.299 7.861 1.36 16.91-.473 9.05-1.892 24.09-10.335 37.497-10.1 13.291.118 26.921 11.34 41.964 11.11 14.931-.711 31.672-12.523 46.942-13.11 14.874-.473 28.16 10.277 43.15 10.572 15.214.118 30.654-9.982 46.942-9.568 16.06.237 32.406 11.163 48.807 11.1 16.12-.353 31.388-11.991 48.19-12.11 16.854 0 35.403 11.222 51.92 11.575 16.286 0 33.14-10.69 45.07-11.1 11.65-.414 18.04 7.03 25.05 8.624 6.899 1.477 12.159 1.714 16.232.474v-31.3"/></g></svg>
